!! 00000] TT[WS
!!!OTL: Meimei jiaopengyou
!!!ARE: Asia, China, Shanxi Xingxian
!! Ethnic Group: Han
!! WII, 116 (2)
!!!SCT: J0578
!!!YEM: Copyright 1995, estate of Helmut Schaffrath.
**kern
*ICvox
*Ivox
*M2/4
*k[b-]
*F:
{8dd
8cc
4a
=1
8dd
8cc
4a
=2
8ff
16dd
16cc
8dd
8cc
=3
8.f
16g
4a}
=4
{8ff
16dd
16cc
8dd
8cc
=5
8a
8cc
8f
8d
=6
8d
8g
8e
8d
=7
2c}
=8
{8f
8d
4f
=9
8cc
16c
16d
4f
=10
8f
8d
4f
=11
8c
16c
16d
4f}
=12
{8f
8d
8f
8d
=13
8cc
8dd
4cc
=14
8g
16g
16g
8cc
8d
=15
2c}
==
!!!AGN: Xiaodiao. Qingge, Sichun
!!!ONB: ESAC (Essen Associative Code) Database: CHINA
!!!AMT: simple duple
!!!AIN: vox
!!!EED: Helmut Schaffrath
!!!EEV: 1.0
*-
